X:93
T: Esik eső, nől a petrezselyem...
M: 2/4
L: 1/4
K: F
g/g/g/f/ | g/f/e | d/dd/ | 
g/g/g/f/ | e/e/d | c/cc/ | 
f/f/f/e/ | d/d/c | B/BB/ | 
d/d/d/c/ | B/B/A | G/GG/ | 

